X: 18197
T: Humours Of Glendart, The
R: jig
M: 6/8
K: Dmajor
BAF ADD|FDD ADD|BAF ADD|FEE EFA|
BAF ADD|FDF ABd|edB BAF|BEE EFA:|
dfe d2B|AFA A2B|dfe def|gfe fdB|
dfe d2B|AFA ABd|fed BAF|AFE E2z:|

